assets/amenitiesIcons/Chocolate.svg

<?xml version="1.0" encoding="UTF-8"?>
<!-- Uploaded to: SVG Repo, www.svgrepo.com, Generator: SVG Repo Mixer Tools -->
<svg fill="#000000" width="800px" height="800px" viewBox="0 0 15 15" id="confectionery" xmlns="http://www.w3.org/2000/svg">
  <path d="M13,4a1,1,0,0,0-1-1,1,1,0,0,0-2,0V5.0673A3.4808,3.4808,0,0,0,4.3583,9H2a1,1,0,0,0,0,2,1,1,0,0,0,1,1,1,1,0,0,0,2,0V9.9326A3.4807,3.4807,0,0,0,10.6417,6H13a1,1,0,0,0,0-2ZM7.5,9.9925A2.484,2.484,0,0,1,6.3184,5.319a1.0809,1.0809,0,0,1,.5459.307A2.1243,2.1243,0,0,1,7.25,7.0117l.001.9561A2.5821,2.5821,0,0,0,7.76,9.7031a1.5462,1.5462,0,0,0,.2591.2333A2.4861,2.4861,0,0,1,7.5,9.9925ZM8.6815,9.681a1.0813,1.0813,0,0,1-.5458-.307A2.1243,2.1243,0,0,1,7.75,7.9883l-.001-.9561A2.5821,2.5821,0,0,0,7.24,5.2969a1.5557,1.5557,0,0,0-.2592-.2334A2.4843,2.4843,0,0,1,8.6815,9.681Z"/>
</svg>

<svg xmlns="http://www.w3.org/2000/svg" width="800" height="800" viewBox="0 0 15 15"><path d="M13 4a1 1 0 0 0-1-1 1 1 0 0 0-2 0v2.067A3.48 3.48 0 0 0 4.358 9H2a1 1 0 0 0 0 2 1 1 0 0 0 1 1 1 1 0 0 0 2 0V9.933A3.48 3.48 0 0 0 10.642 6H13a1 1 0 0 0 0-2M7.5 9.993a2.484 2.484 0 0 1-1.182-4.674 1.08 1.08 0 0 1 .546.307 2.124 2.124 0 0 1 .386 1.386l.001.956a2.582 2.582 0 0 0 .509 1.735 1.546 1.546 0 0 0 .26.233 2.486 2.486 0 0 1-.52.056m1.181-.312a1.081 1.081 0 0 1-.545-.307 2.124 2.124 0 0 1-.386-1.386l-.001-.956a2.582 2.582 0 0 0-.509-1.735 1.556 1.556 0 0 0-.26-.233A2.484 2.484 0 0 1 8.682 9.68"/></svg>
